assets/icon-pack.svg

<?xml version="1.0" encoding="UTF-8"?>
<!DOCTYPE svg PUBLIC "-//W3C//DTD SVG 1.1//EN" "http://www.w3.org/Graphics/SVG/1.1/DTD/svg11.dtd">
<!-- Creator: CorelDRAW 2017 -->
<svg xmlns="http://www.w3.org/2000/svg" xml:space="preserve" width="100%" height="100%" version="1.1" style="shape-rendering:geometricPrecision; text-rendering:geometricPrecision; image-rendering:optimizeQuality; fill-rule:evenodd; clip-rule:evenodd"
viewBox="0 0 1.02985 1.28406"
 xmlns:xlink="http://www.w3.org/1999/xlink">
 <defs>
  <style type="text/css">
   <![CDATA[
    .str0 {stroke:#FEFEFE;stroke-width:0.03897;stroke-miterlimit:22.9256}
    .fil1 {fill:none}
    .fil0 {fill:#FEFEFE}
   ]]>
  </style>
 </defs>
 <g id="Camada_x0020_1">
  <metadata id="CorelCorpID_0Corel-Layer"/>
  <g id="_2075676900368">
   <path class="fil0" d="M0.17819 0l0.66906 0c0.02379,0 0.04326,0.01946 0.04326,0.04326l0 0.18975c0,0.00915 -0.00748,0.01663 -0.01664,0.01663l-0.7223 0c-0.00916,0 -0.01665,-0.00748 -0.01665,-0.01663l0 -0.18975c0,-0.0238 0.01946,-0.04326 0.04327,-0.04326zm0.00512 0.04838l0 0.15288 0.65881 0 0 -0.15288 -0.65881 0zm0.00666 0.20126l0 0.00208c0,0.03833 -0.05422,0.05463 -0.08498,0.07749 -0.06028,0.04479 -0.10499,0.08499 -0.10499,0.20747l0 0.5899c0,0.09413 0.05085,0.15748 0.13499,0.15748l0.32245 0 0.04748 0 0.38995 0c0.08413,0 0.13498,-0.06336 0.13498,-0.15748l0 -0.5899c0,-0.12248 -0.04471,-0.16268 -0.10499,-0.20747 -0.03076,-0.02286 -0.08498,-0.03916 -0.08498,-0.07749l0 -0.00208 -0.04839 0 0 0.00208c0,0.04914 0.03644,0.07652 0.07504,0.09856 0.00965,0.00551 0.02059,0.01116 0.02947,0.01777 0.06645,0.04938 0.08546,0.08109 0.08546,0.16863l0 0.5899c0,0.05732 -0.02282,0.10909 -0.08659,0.10909l-0.75988 0c-0.06379,0 -0.0866,-0.05176 -0.0866,-0.10909l0 -0.5899c0,-0.08754 0.01901,-0.11925 0.08546,-0.16863 0.00888,-0.00661 0.01982,-0.01226 0.02947,-0.01777 0.02801,-0.016 0.05545,-0.03405 0.06838,-0.06515 0.00441,-0.01062 0.00666,-0.0219 0.00666,-0.03341l0 -0.00208 -0.04839 0z"/>
   <path class="fil1 str0" d="M0.29794 0.80357c-0.04178,-0.00047 -0.06365,-0.00588 -0.02277,-0.05509l0.28876 -0.34759c0.05916,-0.07121 0.05805,-0.01306 0.04903,0.04363l-0.02794 0.17543c-0.008,0.05033 -0.00225,0.04131 0.0442,0.04131l0.09351 0c0.05349,0 0.01647,0.04744 0,0.06657l-0.29838 0.34657c-0.05118,0.05946 -0.07663,0.0519 -0.05938,-0.02046l0.05041 -0.21153c0.00662,-0.02776 0.01046,-0.03741 -0.02397,-0.0378l-0.09347 -0.00104z"/>
  </g>
 </g>
</svg>

<svg xmlns="http://www.w3.org/2000/svg" width="100%" height="100%" fill-rule="evenodd" clip-rule="evenodd" image-rendering="optimizeQuality" shape-rendering="geometricPrecision" text-rendering="geometricPrecision" version="1.1" viewBox="0 0 1.03 1.284" xml:space="preserve">
  <path fill="#fefefe" d="M.178 0h.67C.87 0 .89.02.89.043v.19C.89.243.883.25.874.25H.152A.017.017 0 0 1 .135.233v-.19C.135.02.155 0 .178 0zm.005.048v.153h.66V.048h-.66zM.19.25v.002C.19.29.136.306.105.329.045.374 0 .414 0 .537v.59c0 .094.05.157.135.157h.76c.084 0 .135-.063.135-.157v-.59C1.03.414.985.374.925.329.895.306.84.29.84.252V.25H.79v.002C.791.3.828.328.867.35c.01.006.02.011.029.018.066.05.085.081.085.169v.59c0 .057-.022.109-.086.109h-.76c-.064 0-.087-.052-.087-.11v-.59c0-.087.02-.119.086-.168C.143.361.154.356.164.35.19.334.218.316.231.285A.087.087 0 0 0 .238.252V.25H.19z"/>
  <path fill="none" stroke="#fefefe" stroke-miterlimit="22.926" stroke-width=".039" d="M.298.804C.256.804.234.798.275.748L.564.401C.624.33.622.388.613.445L.585.62C.577.67.583.661.629.661h.094c.053 0 .016.048 0 .067l-.299.346c-.05.06-.076.052-.059-.02l.05-.212C.422.815.425.805.391.805L.298.804z"/>
</svg>
